X:1
T:Title
%%score { ( 1 3 ) | ( 2 4 ) }
L:1/8
Q:1/4=100
M:4/4
K:Bb
V:1 treble nm="Grand Piano"
V:3 treble 
V:2 bass 
V:4 bass 
V:1
 [DF]2 F2 G2 F2 | B2 .[Fd]2 z4 | .[CFG]2 [CFA]2 [B,FB]2 e2 | d2 c2 z4 | %4
w: from~Mendelssohn * * *||||
 [DF]2 .[DF]2 [B,EG]2 [CEF]2 | .[DB]2 [DBd][EAc] [DGB]2 [D^FA]2 | z2 .[FA]2 z2 .F2 | z2 c2 z4 |] %8
w: ||||
V:2
 [B,,B,]2 [D,B,]2 [E,B,E]2 [E,A,C]2 | .[D,B,]2 z E F,2 F,2 | z =EF,E, D,2 [G,B,_E]2 | %3
 [B,F]D z E B,,4 | B,2 z C G,2 =A,2 | B,2 z2 z4 | G,,2 z E B,,2 D,E, | %7
 [F,B,F]2 .[F,A,F]2 [B,,F,B,]4 |] %8
V:3
 x8 | z FG-[Gc] [DFB]2 [CFA]2 | x8 | z B[FA]G [DFB]4 | x8 | x8 | [DGB]2 C-[CG] [DF]2 [B,B]-[B,GB] | %7
 d2 z E [DB]4 |] %8
V:4
 x8 | z2 E,2 z4 | C,2 z2 z4 | F,2 F,2 z4 | z2 _A,2 z4 | z FB,,C, D,2 D,2 | z2 A,,2 z4 | x8 |] %8

